X:1
T:Title
%%score [ ( 1 2 ) ( 3 4 ) ] { ( 5 6 7 ) | ( 8 9 ) }
L:1/8
Q:1/4=120
M:4/4
K:E
V:1 treble nm="Midi_74"
V:2 treble 
V:3 bass nm="Midi_74"
V:4 bass 
V:5 treble nm="Org."
V:6 treble 
V:7 treble 
V:8 bass 
V:9 bass 
V:1
 E8 | F4 (B3 A) | G8 || B8 | (B2 G2) (E2 C2) | D4 C4 | B,8 || B8 | c4 (f3 e) | d8 || e8 | %11
 (e2 c2)"^William Henry Havergal\n(1793-1870)" (A2 F2) | G4 F4 | E8 |] %14
V:2
 E8 | C4 (B,2 D2) | E8 || F8 | E4 B,4 | B,4 ^A,4 | B,8 || F8 | (G2 E2) F4 | F8 || E8 | F4 E4 | %12
 E4 D4 | E8 |] %14
V:3
 B,8 | A,4 B,4 | B,8 || B,8 | G,4 G,4 | F,4 (F,2 E,2) | D,8 || B,8 | G,4 (A,2 ^A,2) | B,8 || B,8 | %11
 A,4 C4 | B,4 (B,2 A,2) | G,8 |] %14
V:4
 G,8 | (A,2 F,2) (D,2 B,,2) | E,8 || D,8 | E,4 E,4 | F,4 F,,4 | B,,8 || D,8 | %8
 (E,2 C,2) (A,,2 F,,2) | B,,8 || G,,8 | A,,4 A,,4 | B,,4 B,,4 | E,8 |] %14
V:5
 E8 | F4 B3 A | G8 || B8 | B2 G2 E2 C2 | D4 C4 | B,8 || B8 | c4 f3 e | d8 || e8 | e2 c2 A2 F2 | %12
 G4 F4 | E8 |] %14
V:6
 x8 | x4 F4 | x8 || x8 | x8 | x8 | x8 || x8 | x4 A2 ^A2 | x8 || x8 | x8 | x8 | x8 |] %14
V:7
 [B,E]8 | C2 A,2 B,2 D2 | [B,E]8 || F8 | E4 B,4 | B,4 ^A,4 | B,8 || F8 | [EG]4 F4 | [FB]8 || %10
 [EB]8 | F4 [CE]4 | [B,E]4 D4 | E8 |] %14
V:8
 x8 | x8 | x8 || B,8 | G,4 G,4 | F,4 (F,2 E,2) | D,8 || x8 | x8 | x8 || x8 | x8 | x4 B,2 A,2 | %13
 x8 |] %14
V:9
 G,8 | A,2 F,2 D,2 B,,2 | E,8 || D,8 | E,4 E,4 | F,4 F,,4 | B,,8 || D,8 | E,2 C,2 A,,2 F,,2 | %9
 B,,8 || G,,8 | A,,4 A,,4 | B,,4 B,,4 | [E,G,]8 |] %14

